T: Michael Joseph Dunne
M: 4/4
L: 1/8
K: Dmaj
dA (3GFE DF (3ABc | dAcA BFAF | GA (3B=c^c dA (3FGA | (3GFE (3FED (3EFG (3ABc |dA (3GFE DF (3ABc | dAcA BFAF | GABc dAFA | GEFE D2 :|eA (3A^GA fA (3AGA | gAfA eA (3A^GA | gAfA (3efe (3def | (3efe (3dcB (3ABA (3 FGA |dA (3GFE DF (3ABc | dAcA BFAF | GABc dAFA | GEFE D2 :|~ | d2 (3GFE D2 (3ABc | d>ac>a B>fA>f | g>d (3ABc d>a (3fga | g>e (3cde d2 :|
